images/global/icons/action/thumbsup-line.svg

<?xml version="1.0" encoding="UTF-8"?>
<svg width="48px" height="48px" viewBox="0 0 48 48" version="1.1" xmlns="http://www.w3.org/2000/svg" xmlns:xlink="http://www.w3.org/1999/xlink">
    <!-- Generator: Sketch 46.2 (44496) - http://www.bohemiancoding.com/sketch -->
    <title>icon/Action/thumbsup-line</title>
    <desc>Created with Sketch.</desc>
    <defs>
        <path d="M22.7987547,8.36186553 L17.0977478,8.36186553 C16.4352267,8.36186553 15.8962715,8.90085269 15.8962715,9.5632976 L15.8962715,9.80640194 C14.9172139,9.60487364 14.0659951,9.03458896 13.5029041,8.18539834 L12.1479521,4.94454603 C12.1367504,4.91879199 12.1250867,4.89465478 12.1108824,4.86624449 C12.1086882,4.8619714 12.106494,4.8576983 12.1042999,4.85342521 C11.8752988,4.41826266 11.7622418,4.0640579 11.7794486,3.33532231 C11.7795641,3.32977884 11.7795641,3.32435086 11.7795641,3.31892287 C11.7795641,3.29697996 11.7793331,3.27803977 11.7781783,3.25655881 L11.7305997,1.95442034 C11.6908738,0.858429735 10.7965801,0 9.69476496,0 L9.16493289,0 C7.30567038,0 5.79308526,1.51637057 5.79308526,3.38024753 L5.79308526,4.01740034 C5.79308526,4.38026678 5.81745199,4.6803072 5.86953444,4.95771178 L6.1647068,7.85775605 L2.45599776,8.78767347 C2.44514244,8.79044521 2.43428712,8.79333244 2.42354728,8.79668162 C0.648124807,9.33462938 -0.360611716,11.1517333 0.11921659,12.9400805 L1.88886496,21.3062191 C1.89175201,21.3196158 1.89498551,21.3330125 1.89868094,21.3462938 C2.30148266,22.813235 3.64453998,23.8388928 5.1668256,23.8433969 L11.1748996,23.999769 C11.1809047,23.9998845 11.1876026,24 11.1936077,24 C12.1431019,24 13.0613004,23.5919774 13.7158532,22.8771005 L14.3453464,22.1808173 C14.551251,22.1139491 15.0723065,22.0877331 15.8962715,22.1020538 L15.8962715,22.3321079 C15.8962715,22.9945528 16.4352267,23.5334244 17.0977478,23.5334244 L22.7987547,23.5334244 C23.4611603,23.5334244 24,22.9945528 24,22.3321079 L24,9.5632976 C24,8.90085269 23.4611603,8.36186553 22.7987547,8.36186553 L22.7987547,8.36186553 Z M13.3749499,21.1879583 L12.6909492,21.9444113 C12.3031601,22.3679095 11.760856,22.6117067 11.201345,22.614132 L5.19442583,22.4577599 C5.18842076,22.4576444 5.18253117,22.4575289 5.1765261,22.4575289 C4.27865243,22.4574134 3.48517463,21.8580255 3.24012152,20.997748 L1.47093508,12.6340346 C1.46804803,12.6206379 1.46481453,12.6072412 1.4611191,12.5938444 C1.16975765,11.5338864 1.76195008,10.4537178 2.81052794,10.1275768 L7.08325177,9.0561854 C7.41699516,8.97245587 7.63883636,8.65636248 7.60396075,8.31382211 L7.24515773,4.78690355 C7.24284809,4.76542259 7.23973007,4.74405713 7.23557272,4.72303813 C7.1968862,4.52682232 7.17887098,4.30265817 7.17887098,4.01740034 L7.17887098,3.38024753 C7.17887098,2.26185206 8.0512231,1.385868 9.16493289,1.385868 L9.69476496,1.385868 C10.0531061,1.385868 10.3329193,1.65183916 10.3457378,2.00477355 L10.3935474,3.3133794 C10.3936629,3.31430331 10.3936629,3.31511174 10.3936629,3.31603565 C10.3717213,4.32506304 10.5627288,4.89985179 10.8734912,5.49034704 L12.2488835,8.77820338 C12.2644736,8.81550632 12.2832972,8.8514234 12.3050078,8.88537717 C13.125393,10.1629165 14.4163679,10.9918965 15.8962715,11.213058 L15.8962715,20.7161858 C14.5338132,20.692626 13.7612377,20.766077 13.3749499,21.1879583 L13.3749499,21.1879583 Z M17.2820573,9.74773353 L22.6142143,9.74773353 L22.6142143,22.1475564 L17.2820573,22.1475564 L17.2820573,9.74773353 Z" id="path-1"></path>
    </defs>
    <g id="Symbols" stroke="none" stroke-width="1" fill="none" fill-rule="evenodd">
        <g id="icon/Action/thumbsup-line">
            <g id="Icon" transform="translate(12.000000, 12.000000)">
                <mask id="mask-2" fill="white">
                    <use xlink:href="#path-1"></use>
                </mask>
                <use id="Mask" fill="#384048" xlink:href="#path-1"></use>
                <g id="Color/Grayscale/Night-Sky" mask="url(#mask-2)" fill="#111111">
                    <g transform="translate(-10.560000, -11.520000)" id="Swatch">
                        <rect x="0" y="0" width="46" height="46"></rect>
                    </g>
                </g>
            </g>
        </g>
    </g>
</svg>

<?xml version="1.0" encoding="utf-8"?>
<!-- Generator: Adobe Illustrator 21.0.2, SVG Export Plug-In . SVG Version: 6.00 Build 0)  -->
<svg version="1.1" id="Layer_1" xmlns="http://www.w3.org/2000/svg" xmlns:xlink="http://www.w3.org/1999/xlink" x="0px" y="0px"
	 viewBox="0 0 48 48" style="enable-background:new 0 0 48 48;" xml:space="preserve">
<title>icon/Action/thumbsup-line</title>
<desc>Created with Sketch.</desc>
<g id="Symbols">
	<g id="icon_x2F_Action_x2F_thumbsup-line">
		<g id="Icon" transform="translate(12.000000, 12.000000)">
			<g id="Mask">
				<path id="path-1_1_" style="fill:#384048;" d="M22.8,8.4h-5.7c-0.7,0-1.2,0.5-1.2,1.2v0.2c-1-0.2-1.8-0.8-2.4-1.6l-1.4-3.2
					c0,0,0,0,0-0.1c0,0,0,0,0,0c-0.2-0.4-0.3-0.8-0.3-1.5c0,0,0,0,0,0c0,0,0,0,0-0.1l0-1.3c0-1.1-0.9-2-2-2H9.2
					C7.3,0,5.8,1.5,5.8,3.4V4c0,0.4,0,0.7,0.1,0.9l0.3,2.9L2.5,8.8c0,0,0,0,0,0c-1.8,0.5-2.8,2.4-2.3,4.1l1.8,8.4c0,0,0,0,0,0
					c0.4,1.5,1.7,2.5,3.3,2.5l6,0.2c0,0,0,0,0,0c0.9,0,1.9-0.4,2.5-1.1l0.6-0.7c0.2-0.1,0.7-0.1,1.6-0.1v0.2c0,0.7,0.5,1.2,1.2,1.2
					h5.7c0.7,0,1.2-0.5,1.2-1.2V9.6C24,8.9,23.5,8.4,22.8,8.4L22.8,8.4z M13.4,21.2l-0.7,0.8c-0.4,0.4-0.9,0.7-1.5,0.7l-6-0.2
					c0,0,0,0,0,0c-0.9,0-1.7-0.6-1.9-1.5l-1.8-8.4c0,0,0,0,0,0c-0.3-1.1,0.3-2.1,1.3-2.5l4.3-1.1C7.4,9,7.6,8.7,7.6,8.3L7.2,4.8
					c0,0,0,0,0-0.1c0-0.2-0.1-0.4-0.1-0.7V3.4c0-1.1,0.9-2,2-2h0.5c0.4,0,0.6,0.3,0.7,0.6l0,1.3c0,0,0,0,0,0c0,1,0.2,1.6,0.5,2.2
					l1.4,3.3c0,0,0,0.1,0.1,0.1c0.8,1.3,2.1,2.1,3.6,2.3v9.5C14.5,20.7,13.8,20.8,13.4,21.2L13.4,21.2z M17.3,9.7h5.3v12.4h-5.3V9.7
					z"/>
			</g>
			<defs>
				<filter id="Adobe_OpacityMaskFilter" filterUnits="userSpaceOnUse" x="-10.6" y="-11.5" width="46" height="46">
					<feColorMatrix  type="matrix" values="1 0 0 0 0  0 1 0 0 0  0 0 1 0 0  0 0 0 1 0"/>
				</filter>
			</defs>
			<mask maskUnits="userSpaceOnUse" x="-10.6" y="-11.5" width="46" height="46" id="qmask-2">
				<g style="filter:url(#Adobe_OpacityMaskFilter);">
					<path id="path-1" style="fill:#FFFFFF;" d="M22.8,8.4h-5.7c-0.7,0-1.2,0.5-1.2,1.2v0.2c-1-0.2-1.8-0.8-2.4-1.6l-1.4-3.2
						c0,0,0,0,0-0.1c0,0,0,0,0,0c-0.2-0.4-0.3-0.8-0.3-1.5c0,0,0,0,0,0c0,0,0,0,0-0.1l0-1.3c0-1.1-0.9-2-2-2H9.2
						C7.3,0,5.8,1.5,5.8,3.4V4c0,0.4,0,0.7,0.1,0.9l0.3,2.9L2.5,8.8c0,0,0,0,0,0c-1.8,0.5-2.8,2.4-2.3,4.1l1.8,8.4c0,0,0,0,0,0
						c0.4,1.5,1.7,2.5,3.3,2.5l6,0.2c0,0,0,0,0,0c0.9,0,1.9-0.4,2.5-1.1l0.6-0.7c0.2-0.1,0.7-0.1,1.6-0.1v0.2c0,0.7,0.5,1.2,1.2,1.2
						h5.7c0.7,0,1.2-0.5,1.2-1.2V9.6C24,8.9,23.5,8.4,22.8,8.4L22.8,8.4z M13.4,21.2l-0.7,0.8c-0.4,0.4-0.9,0.7-1.5,0.7l-6-0.2
						c0,0,0,0,0,0c-0.9,0-1.7-0.6-1.9-1.5l-1.8-8.4c0,0,0,0,0,0c-0.3-1.1,0.3-2.1,1.3-2.5l4.3-1.1C7.4,9,7.6,8.7,7.6,8.3L7.2,4.8
						c0,0,0,0,0-0.1c0-0.2-0.1-0.4-0.1-0.7V3.4c0-1.1,0.9-2,2-2h0.5c0.4,0,0.6,0.3,0.7,0.6l0,1.3c0,0,0,0,0,0c0,1,0.2,1.6,0.5,2.2
						l1.4,3.3c0,0,0,0.1,0.1,0.1c0.8,1.3,2.1,2.1,3.6,2.3v9.5C14.5,20.7,13.8,20.8,13.4,21.2L13.4,21.2z M17.3,9.7h5.3v12.4h-5.3
						V9.7z"/>
				</g>
			</mask>
			<g id="Color_x2F_Grayscale_x2F_Night-Sky" style="mask:url(#qmask-2);">
				<g id="Swatch" transform="translate(-10.560000, -11.520000)">
					<rect x="0" y="0" style="fill:#111111;" width="46" height="46"/>
				</g>
			</g>
		</g>
	</g>
</g>
</svg>
